X:1
T:James Gibb editions
%%score [ ( 1 2 ) ( 3 4 ) ]
L:1/8
Q:1/4=80
M:4/4
K:C
V:1 treble nm="Midi_74"
V:2 treble 
V:3 bass nm="Midi_74"
V:4 bass 
V:1
"^Thanksgiving (C.M.)""^Henry Williams Baker\n(1821-77)""^My Father, for another night""^Joseph Barnby\n(1838-96)" G2 | %1
w: |
 F2 E2 A2 G2 | F2 GA G2 || F2 | E2 ^F2 G2 F2 | E6 ||[M:4/4] G2 | c3 c B2 A2 | d3 c B2 || G2 | %10
w: |||||||||
 c2 G2 F2 G2 | E6 || F4 E4 |] %13
w: ||A- men.|
V:2
 C2 | C2 C2 C2 C2 | D2 D2 D2 || B,2 | C2 E2 E2 ^D2 | E6 ||[M:4/4] B,2 | C2!<(! C2 D2 C2!<)! | %8
 D2 ^F2 G2 || D2 | C2 C2 C2 B,2 | C6 || C4 C4 |] %13
V:3
 E,2 | A,2 G,2 F,2 G,2 | A,2 F,2 G,2 || G,2 | G,2 C2 B,3 A, | G,6 ||[M:4/4] =F,2 | %7
"^1 My Father, for another night\nof quiet sleep and rest,\nfor all the joy of morning light,\nthy holy name be blest.\n\n2 Now with the new-born day I give\nmyself anew to thee,\nthat as thou willest I may live,\nand what thou willest be." E,2 G,2 ^G,2 A,2 | %8
 A,2 D2 D2 || B,2 | %10
"^3 Whate'er I do, things great or small,\nwhate'er I speak or frame,\nthy glory may I seek in all,\ndo all in Jesus' name.\n\n4 My Father, for his sake, I pray,\nthy child accept and bless;\nand lead me by thy grace to-day\nin paths of righteousness."!>(! G,2 G,2 A,2!>)! G,2 | %11
 G,6 || A,4 x4 |] %13
V:4
 C,2 | C,2 C,2 F,2 E,2 | D,2 C,2 B,,2 || G,,2 | C,2 A,,2 B,,2 B,,2 | E,6 ||[M:4/4] D,2 | %7
 C,2 E,2 F,2 F,2 | ^F,2 D,2 G,2 || =F,2 | E,2 E,2 D,2 G,,2 | C,6 || F,,4 C,4 |] %13

